_astro/messages-duotone.210816ed.svg

<svg xmlns="http://www.w3.org/2000/svg" viewBox="0 0 640 512"><!--! Font Awesome Pro 6.4.2 by @fontawesome - https://fontawesome.com License - https://fontawesome.com/license (Commercial License) Copyright 2023 Fonticons, Inc.--><path d="M0 64C0 28.7 28.7 0 64 0h288c35.3 0 64 28.7 64 64v192c0 35.3-28.7 64-64 64H202.7l-81.1 60.8c-4.8 3.6-11.3 4.2-16.8 1.5S96 374.1 96 368v-48H64c-35.3 0-64-28.7-64-64V64z" class="fa-primary"/><path d="M256 352v32c0 35.3 28.7 64 64 64h117.3l81.1 60.8c4.8 3.6 11.3 4.2 16.8 1.5s8.8-8.2 8.8-14.3v-48h32c35.3 0 64-28.7 64-64V192c0-35.3-28.7-64-64-64H448v128c0 53-43 96-96 96h-96z" style="opacity:.4"/></svg>

<svg xmlns="http://www.w3.org/2000/svg" viewBox="0 0 640 512"><!--! Font Awesome Pro 6.4.2 by @fontawesome - https://fontawesome.com License - https://fontawesome.com/license (Commercial License) Copyright 2023 Fonticons, Inc. --><defs><style>.fa-secondary{opacity:.4}</style></defs><path class="fa-primary" d="M0 64C0 28.7 28.7 0 64 0H352c35.3 0 64 28.7 64 64V256c0 35.3-28.7 64-64 64H202.7l-81.1 60.8c-4.8 3.6-11.3 4.2-16.8 1.5s-8.8-8.2-8.8-14.3V320H64c-35.3 0-64-28.7-64-64V64z"/><path class="fa-secondary" d="M256 352v32c0 35.3 28.7 64 64 64H437.3l81.1 60.8c4.8 3.6 11.3 4.2 16.8 1.5s8.8-8.2 8.8-14.3V448h32c35.3 0 64-28.7 64-64V192c0-35.3-28.7-64-64-64H448V256c0 53-43 96-96 96H256z"/></svg>
